actions/22x22-light/edit-guides.svg

<svg xmlns="http://www.w3.org/2000/svg" viewBox="0 0 22 22">
 <defs id="defs3051">
   <style type="text/css" id="current-color-scheme">
     .ColorScheme-Text {
       color:#4d4d4d;
     }
     </style>
 </defs>
   <path
      style="fill:currentColor;fill-opacity:1;stroke:none"
      d="m3.2480469 3c-.20096-.00007-.3652344.1626213-.3652344.3632812v4.0234376c0 .2006599.1645344.3652343.3652344.3652343h.1699219v.5566407c0 .0932.071295.1601562.171875.1601562.0029999 0 .0038593-.0018731.0058593-.0019531h1.0898438c.0362 0 .0664062.0302062.0664062.0664062v.46875c0 .0362-.0302062.0664063-.0664062.0664063h-1.0664063c-.0774 0-.1231275.0292875-.1484375.0546875-.0499.05-.0527343.11323-.0527343.125v1.2460941c-.0000401.0108.002175.066658.046875.111328.0221999.0223.0624462.048828.1289062.048828h.5058594c.0362 0 .0644531.028253.0644531.064453v.470703c0 .0362-.0282531.064453-.0644531.064453h-.4765625c-.0802 0-.1265838.030841-.1523438.056641-.0492.0493-.0527343.109654-.0527343.121094v1.246093c-.00005.0103.0022749.062882.046875.107422.0244.0245.0706374.054688.1484374.054688h1.0722657c.0362 0 .0664062.030206.0664062.066406v.46875c0 .0362-.0302062.064453-.0664062.064453h-1.0761719c-.0767 0-.1225044.028635-.1464844.052735-.0432.0433-.0450218.095808-.0449218.105468v1.253906c-.0000401.0133.0017812.0821.0507812.13086.0288.0288.0679481.042969.1113281.042969h.5195313c.0362 0 .0644531.030206.0644531.066406v.46875c0 .0362-.0282531.066406-.0644531.066406h-.4980469c-.13441 0-.1835937.091727-.1835937.154297v1.251953c-.00097.0205-.0009613.089629.0429687.136719.0248.0266.0600563.041016.0976563.041016h1.1269531c.0362 0 .0664062.030206.0664062.066406v.46875c0 .0362-.0302062.066406-.0664062.066406h-1.0625c-.15051 0-.2050781.120132-.2050781.201172v.611328c0 .20628.1687299.375.375.375h2.7441406c.20628 0 .3730468-.16872.3730468-.375v-11.2382812-.1894532h11.8320318c.20627 0 .375-.16872.375-.375v-2.7441406c0-.20624-.16877-.3730469-.375-.3730469h-.232422c-.0933 0-.1875.0573588-.1875.1679688v1.0996093c0 .0362001-.028154.0644532-.064454.0644532h-.470703c-.0363 0-.064453-.0282531-.064453-.0644532v-1.0625c0-.0665999-.01914-.1207931-.05664-.1582031-.046-.0459-.100499-.046875-.111328-.046875h-1.236329c-.0732 0-.18164.0509094-.18164.1933594v.4863281c0 .0362-.030206.0664063-.066407.0664063h-.46875c-.0362 0-.064453-.0302063-.064453-.0664063v-.5l-.001953-.0039062c-.004-.0705-.052131-.1757813-.175781-.1757813h-1.25c-.058 0-.093301.025275-.113281.046875-.0443.0476-.045722.1112894-.044922.1308594v1.0898437c0 .0362001-.030206.0664063-.066406.0664063h-.46875c-.0362 0-.066407-.0302062-.066407-.0664063v-1.0664062c0-.0774-.029287-.1231275-.054687-.1484375-.0497-.0496-.110867-.0527344-.123047-.0527344h-.001953-1.246094c-.0619 0-.158203.0477513-.158203.1757813v.5039062c0 .0362-.030206.0664063-.066406.0664063h-.46875c-.0362 0-.066407-.0302063-.066407-.0664063v-.4746094c0-.0802999-.03084-.1285368-.05664-.1542968-.049-.049-.109284-.0507813-.121094-.0507813h-1.2460936c-.065 0-.1621094.0509094-.1621094.1933594v1.0742187c0 .0362001-.0282531.0664063-.0644531.0664063h-.46875c-.0362 0-.0664063-.0302062-.0664063-.0664063v-1.078125c0-.0766999-.0287343-.1205512-.0527344-.1445312-.043-.0429-.0952687-.0449219-.1054687-.0449219h-1.2539063c-.0867999 0-.1738281.0543663-.1738281.1601563v.5195312c0 .0362-.0302062.0664063-.0664062.0664063h-.4140625v-.7753907-.3125c0-.2006599-.1645344-.3632812-.3652344-.3632812z"
      class="ColorScheme-Text" />
</svg>

<svg xmlns="http://www.w3.org/2000/svg" viewBox="0 0 22 22">
  <defs id="defs3051">
    <style type="text/css" id="current-color-scheme">
      .ColorScheme-Text {
        color:#4d4d4d
      }
      </style>
  </defs>
 <path 
     style="fill:currentColor;fill-opacity:1;stroke:none"      
	 class="ColorScheme-Text"
     d="M 3.2480469 3 C 3.0470869 2.99993 2.8828125 3.1626213 2.8828125 3.3632812 L 2.8828125 7.3867188 C 2.8828125 7.5873787 3.0473469 7.7519531 3.2480469 7.7519531 L 3.4179688 7.7519531 L 3.4179688 8.3085938 C 3.4179688 8.4017938 3.4892638 8.46875 3.5898438 8.46875 C 3.5928437 8.46875 3.5937031 8.4668769 3.5957031 8.4667969 L 4.6855469 8.4667969 C 4.7217469 8.4667969 4.7519531 8.4970031 4.7519531 8.5332031 L 4.7519531 9.0019531 C 4.7519531 9.0381531 4.7217469 9.0683594 4.6855469 9.0683594 L 3.6191406 9.0683594 C 3.5417406 9.0683594 3.4960131 9.0976469 3.4707031 9.1230469 C 3.4208031 9.1730469 3.4179688 9.2362769 3.4179688 9.2480469 L 3.4179688 10.494141 C 3.4179287 10.504941 3.4201438 10.560799 3.4648438 10.605469 C 3.4870437 10.627769 3.52729 10.654297 3.59375 10.654297 L 4.0996094 10.654297 C 4.1358094 10.654297 4.1640625 10.68255 4.1640625 10.71875 L 4.1640625 11.189453 C 4.1640625 11.225653 4.1358094 11.253906 4.0996094 11.253906 L 3.6230469 11.253906 C 3.5428469 11.253906 3.4964631 11.284747 3.4707031 11.310547 C 3.4215031 11.359847 3.4179688 11.420201 3.4179688 11.431641 L 3.4179688 12.677734 C 3.4179188 12.688034 3.4202437 12.740616 3.4648438 12.785156 C 3.4892438 12.809656 3.5354812 12.839844 3.6132812 12.839844 L 4.6855469 12.839844 C 4.7217469 12.839844 4.7519531 12.87005 4.7519531 12.90625 L 4.7519531 13.375 C 4.7519531 13.4112 4.7217469 13.439453 4.6855469 13.439453 L 3.609375 13.439453 C 3.532675 13.439453 3.4868706 13.468088 3.4628906 13.492188 C 3.4196906 13.535488 3.4178688 13.587996 3.4179688 13.597656 L 3.4179688 14.851562 C 3.4179287 14.864862 3.41975 14.933662 3.46875 14.982422 C 3.49755 15.011222 3.5366981 15.025391 3.5800781 15.025391 L 4.0996094 15.025391 C 4.1358094 15.025391 4.1640625 15.055597 4.1640625 15.091797 L 4.1640625 15.560547 C 4.1640625 15.596747 4.1358094 15.626953 4.0996094 15.626953 L 3.6015625 15.626953 C 3.4671525 15.626953 3.4179688 15.71868 3.4179688 15.78125 L 3.4179688 17.033203 C 3.4169988 17.053703 3.4170075 17.122832 3.4609375 17.169922 C 3.4857375 17.196522 3.5209938 17.210938 3.5585938 17.210938 L 4.6855469 17.210938 C 4.7217469 17.210938 4.7519531 17.241144 4.7519531 17.277344 L 4.7519531 17.746094 C 4.7519531 17.782294 4.7217469 17.8125 4.6855469 17.8125 L 3.6230469 17.8125 C 3.4725369 17.8125 3.4179688 17.932632 3.4179688 18.013672 L 3.4179688 18.625 C 3.4179688 18.83128 3.5866987 19 3.7929688 19 L 6.5371094 19 C 6.7433894 19 6.9101562 18.83128 6.9101562 18.625 L 6.9101562 7.3867188 L 6.9101562 7.1972656 L 18.742188 7.1972656 C 18.948458 7.1972656 19.117188 7.0285456 19.117188 6.8222656 L 19.117188 4.078125 C 19.117188 3.871885 18.948418 3.7050781 18.742188 3.7050781 L 18.509766 3.7050781 C 18.416466 3.7050781 18.322266 3.7624369 18.322266 3.8730469 L 18.322266 4.9726562 C 18.322266 5.0088563 18.294112 5.0371094 18.257812 5.0371094 L 17.787109 5.0371094 C 17.750809 5.0371094 17.722656 5.0088563 17.722656 4.9726562 L 17.722656 3.9101562 C 17.722656 3.8435563 17.703516 3.7893631 17.666016 3.7519531 C 17.620016 3.7060531 17.565517 3.7050781 17.554688 3.7050781 L 16.318359 3.7050781 C 16.245159 3.7050781 16.136719 3.7559875 16.136719 3.8984375 L 16.136719 4.3847656 C 16.136719 4.4209656 16.106513 4.4511719 16.070312 4.4511719 L 15.601562 4.4511719 C 15.565362 4.4511719 15.537109 4.4209656 15.537109 4.3847656 L 15.537109 3.8847656 L 15.535156 3.8808594 C 15.531156 3.8103594 15.483025 3.7050781 15.359375 3.7050781 L 14.109375 3.7050781 C 14.051375 3.7050781 14.016074 3.7303531 13.996094 3.7519531 C 13.951794 3.7995531 13.950372 3.8632425 13.951172 3.8828125 L 13.951172 4.9726562 C 13.951172 5.0088563 13.920966 5.0390625 13.884766 5.0390625 L 13.416016 5.0390625 C 13.379816 5.0390625 13.349609 5.0088563 13.349609 4.9726562 L 13.349609 3.90625 C 13.349609 3.82885 13.320322 3.7831225 13.294922 3.7578125 C 13.245222 3.7082125 13.184055 3.7050781 13.171875 3.7050781 L 13.169922 3.7050781 L 11.923828 3.7050781 C 11.861928 3.7050781 11.765625 3.7528294 11.765625 3.8808594 L 11.765625 4.3847656 C 11.765625 4.4209656 11.735419 4.4511719 11.699219 4.4511719 L 11.230469 4.4511719 C 11.194269 4.4511719 11.164062 4.4209656 11.164062 4.3847656 L 11.164062 3.9101562 C 11.164062 3.8298563 11.133222 3.7816194 11.107422 3.7558594 C 11.058422 3.7068594 10.998138 3.7050781 10.986328 3.7050781 L 9.7402344 3.7050781 C 9.6752344 3.7050781 9.578125 3.7559875 9.578125 3.8984375 L 9.578125 4.9726562 C 9.578125 5.0088563 9.5498719 5.0390625 9.5136719 5.0390625 L 9.0449219 5.0390625 C 9.0087219 5.0390625 8.9785156 5.0088563 8.9785156 4.9726562 L 8.9785156 3.8945312 C 8.9785156 3.8178313 8.9497813 3.77398 8.9257812 3.75 C 8.8827812 3.7071 8.8305125 3.7050781 8.8203125 3.7050781 L 7.5664062 3.7050781 C 7.4796063 3.7050781 7.3925781 3.7594444 7.3925781 3.8652344 L 7.3925781 4.3847656 C 7.3925781 4.4209656 7.3623719 4.4511719 7.3261719 4.4511719 L 6.9121094 4.4511719 L 6.9121094 3.6757812 L 6.9121094 3.3632812 C 6.9121094 3.1626213 6.747575 3 6.546875 3 L 3.2480469 3 z "
     />
</svg>
